X:1
T:Svētā  nakts
T:Harm. M. Celminskis
T:Svētā  nakts
C:Harm. M. Celminskis
%%score [ ( 1 2 ) ( 3 4 ) ]
L:1/8
M:3/4
K:D
V:1 treble nm="P1"
V:2 treble 
V:3 bass nm="P2"
V:4 bass 
V:1
!p!"^Tranquillo" A4 d2 | c4 B2 | A4!>(! E2 | G4!>)! F2 |!<(! F4!<)! F2 | B4 E2 | A4!>(! G2!>)! | %7
w: 1. tā|nakts nāk|at- kal|lies- mās,|zvaig- znēm|zvī- ļo|de- bess|
w: 2. bess,|ze- me|mir- dzā|zai- go,|ļau- nā|spēks nu|uz- va-|
w: 3. tā|nakts nāk|gai- šās|lies- mās,|kat- ra|sirds kvēl|ti- cī-|
 F4 z2 |!mf! A4 d2 | c4 B2 | A4 E2 | G4 F2 | F4 F2 | E4 A2 | ^G4 B2 | A4 z2 |!f! c4 A2 | %17
w: jums.|1. šup|vi- jas|ga- viļ-|dzies- mas~–|Die- va|Dēls ir|dzi- mis|mums.|1. tā|
w: rēts.|2. sur|eņ- ģel`s|klu- si|stai- gā,|šo- nakt|dā- vāts|* ir|svēts.|2. ru,|
w: gi.|3. va|Dē- lu|sla- vē|dzies- mās:|ga- vi-|lē- jiet|prie- cī-|gi!|3. cik|
!<(! d4!<)! A2 | e4 A2 | f4!mp! z2 | (d2 c2) B2 | (A2!>(! G2) F2 | (G2!>)! F2) E2 | F4 z2 | %24
w: * kad|zvaig- znes|mirdz,|Die- * vu|sla- * vē|kat- * ra|sirds.|
w: mie- ru|* grib|dot,"|eņ- * ģel`s|li- * do,|slu- * di-|not.|
w: svē- ta,|svē- ta|tu,|* * ar|sa- * vu|krāš- * ņu-|mu!|
!f! c4 A2 |!<(! d4!<)! A2 | e4 A2 | f4 z2 |!p! (d2 c2) B2 |!>(! (A2 G2)!>)! F2 | %30
w: 1. tā|* kad|zvaig- znes|mirdz,|Die- * vu|sla- * vē|
w: 2. ru,|mie- ru|* grib|dot,"|eņ- * ģel`s|li- * do,|
w: 3. cik|svē- ta,|svē- ta|tu,|* * ar|sa- * vu|
"^rit." (G2 F2) A2 | !fermata!A6 |] %32
w: kat- * ra|sirds.|
w: slu- * di-|not.|
w: krāš- * ņu-|mu!|
V:2
 F4 F2 | G4 G2 | (E2 D2) D2 | C4 D2 | D4 D2 | G4 E2 | E4 C2 | D4 x2 | (F2 E2) F2 | (G2 E2) D2 | %10
 (C2 E2) A,2 | (B,2 C2) D2 | D4 C2 | B,4 E2 | E4 ^G2 | A4 x2 | A4 E2 | (A2 G2) F2 | G4 A2 | A4 x2 | %20
 G4 G2 | (F2 E2) D2 | (D2 C2) C2 | D4 x2 | A4 E2 | (A2 G2) F2 | A4 A2 | A4 x2 | G4 G2 | %29
 (F2 E2) D2 | (D2 C2) C2 | D6 |] %32
V:3
 (D2 C2) B,2 | (E2 D2) C2 | (C2 B,2) _B,2 | (A,2 =B,2) A,2 | A,4 B,2 | D4 B,2 | C4 A,2 | A,4 z2 | %8
 z6 | z6 | z6 | z6 | (A,2 B,2) A,2 | ^G,4 A,2 | D4 D2 | C4 z2 | E4 C2 | D4 D2 | (B,2 D2) C2 | %19
 D4 z2 | (B,2 E2) D2 | (C2 B,2) A,2 | (B,2 A,2) A,2 | A,4 z2 | E4 C2 | D4 D2 | (C2 D2) E2 | D4 z2 | %28
 (B,2 E2) D2 | (C2 B,2) A,2 | (B,2 A,2) G,2 | F,6 |] %32
V:4
 z6 | z6 | z6 | z6 | (D,2 C,2) B,,2 | (E,2 F,2) G,2 | (G,2 F,2) E,2 | D,4 x2 | x6 | x6 | x6 | x6 | %12
 D,4 ^D,2 | (E,2 =D,2) C,2 | (B,,2 F,2) E,2 | A,4 x2 | (A,2 B,2) G,2 | (F,2 E,2) D,2 | E,4 A,2 | %19
 D,4 x2 | E,4 E,2 | (F,2 G,2) A,2 | A,,4 A,,2 | D,4 x2 | (A,2 B,2) G,2 | (F,2 E,2) D,2 | %26
 (A,2 B,2) C2 | [D,D]4 x2 | (G,2 E,2) E,2 | (F,2 G,2) A,2 | A,,4 A,,2 | !fermata!D,6 |] %32

